X: 1
T: los Chaumelhos
R: bourree 3
S: Qu\'ebec City workshop, from Betsy Hooper
M: 3/8
L: 1/8
K: Gdor
D |\
G A> G | A> G F | G A> G | A2 :: D | D G G | G F/G/ A |
A/B/ A G | F2 D | D G G | G F/G/ A | A/B/ A F | G2 :|
